X:9
T:No Fixed Abode
C:Gillian Frame and Padraig O'Neill
D:Glasgow Syline
N:pjoneill2001@yahoo.com
Z:robin.beech@mcgill.ca
S:Victoria Bar Session, Glasgow
R:polka
M:2/4
L:1/8
K:Dm
D>E FD | D>E FD | D>E FD | AGFE | D>E FD | D>E FD | A,D A,D | B,D CE ::
d>^c dA | Bf eA/B/ | c>=B cA | Gd c2 |d>^c dA | Bf eA/B/ | c>=B cA | GF E2 :|
